src/img/login-gov-logo-rev.svg

<?xml version="1.0" encoding="UTF-8"?>
<svg width="312px" height="42px" viewBox="0 0 312 42" version="1.1" xmlns="http://www.w3.org/2000/svg" xmlns:xlink="http://www.w3.org/1999/xlink">
    <!-- Generator: Sketch 52.5 (67469) - http://www.bohemiancoding.com/sketch -->
    <title>login-gov-logo-rev-lg</title>
    <desc>Created with Sketch.</desc>
    <g id="Styles" stroke="none" stroke-width="1" fill="none" fill-rule="evenodd">
        <g id="Logo" transform="translate(-208.000000, -627.000000)" fill="#FFFFFF">
            <g id="login-gov-logo-rev-lg" transform="translate(208.000000, 627.000000)">
                <path d="M28.43,0 L4.62,0 C2.06844446,-1.56237717e-16 -1.36521382e-15,2.06844446 -1.67768089e-15,4.62 L-1.67768089e-15,27.26 C-0.00369093647,27.6894115 0.0921478084,28.1138402 0.28,28.5 C1.28,30.5 5.28,37.03 16.52,42 C27.82,37 31.77,30.52 32.77,28.5 C32.9578522,28.1138402 33.0536909,27.6894115 33.05,27.26 L33.05,4.62 C33.05,3.39469982 32.5632514,2.21958474 31.6968333,1.35316667 C30.8304153,0.486748602 29.6553002,-1.01325718e-15 28.43,0 Z M21,27 C19.5205114,27.2563393 18.0215273,27.3834853 16.52,27.38 C15.0419086,27.3780522 13.5666371,27.2509313 12.11,27 C12.6233333,24.06 13.1366667,21.12 13.65,18.18 C12.505709,17.3061878 11.8330445,15.949771 11.83,14.51 C11.8150294,12.3188669 13.3192484,10.4093851 15.4529829,9.91092212 C17.5867174,9.41245918 19.7812323,10.4578777 20.7385765,12.4288624 C21.6959206,14.399847 21.1609191,16.7710427 19.45,18.14 C20,21.06 20.48,24 21,27 Z" id="Shape" fill-rule="nonzero"></path>
                <polygon id="Path" points="54.25 6.21 47.59 6.21 47.59 35.7 66.89 35.7 66.89 29.89 54.25 29.89"></polygon>
                <path d="M87.47,6 C78.47,6 71.63,12.36 71.63,21 C71.63,29.64 78.45,36 87.47,36 C96.49,36 103.31,29.47 103.31,21 C103.31,12.53 96.49,6 87.47,6 Z M87.55,30.18 C82.5090052,30.1415212 78.4443557,26.0411385 78.45,21 C78.4286003,18.5754462 79.3788596,16.2432618 81.0886412,14.5240858 C82.7984228,12.8049098 85.1253653,11.8418858 87.55,11.85 C89.9527462,11.8656841 92.2494597,12.8415058 93.9286574,14.5601478 C95.6078552,16.2787898 96.5300978,18.5975372 96.49,21 C96.5382122,23.4076114 95.6195692,25.7341259 93.9394903,27.4593076 C92.2594114,29.1844892 89.9580437,30.1644287 87.55,30.18 Z" id="Shape" fill-rule="nonzero"></path>
                <path d="M125.74,11.77 C128.747364,11.8447576 131.624036,13.014628 133.83,15.06 L137.58,10.3 C134.25571,7.52950212 130.067412,6.00841417 125.74,6 C116.55,6 109.64,12.45 109.64,21 C109.64,29.55 116.43,36 125.36,36 C129.650668,35.9284142 133.824878,34.5926672 137.36,32.16 L137.36,19.48 L126.4,19.48 L126.4,24.69 L131.55,24.69 L131.55,28.58 C129.772232,29.5423698 127.799506,30.0893994 125.78,30.18 C122.419017,30.2907933 119.264821,28.5609649 117.55153,25.6673315 C115.838239,22.7736981 115.838239,19.1763019 117.55153,16.2826685 C119.264821,13.3890351 122.419017,11.6592067 125.78,11.77 L125.74,11.77 Z" id="Path"></path>
                <rect id="Rectangle" x="146.93" y="6.21" width="6.66" height="29.49"></rect>
                <polygon id="Path" points="184.22 25.17 169.89 6.21 163.82 6.21 163.82 35.7 170.18 35.7 170.18 16.79 184.47 35.7 190.53 35.7 190.53 6.21 184.22 6.21"></polygon>
                <path d="M203.09,28.26 C202.069943,28.2335144 201.085141,28.6340672 200.373164,29.3650299 C199.661187,30.0959926 199.286685,31.0909933 199.34,32.11 C199.268452,33.4941337 199.966185,34.8048714 201.154373,35.5184218 C202.342561,36.2319722 203.827439,36.2319722 205.015627,35.5184218 C206.203815,34.8048714 206.901548,33.4941337 206.83,32.11 C206.892443,31.0903299 206.522334,30.0915473 205.810512,29.3587888 C205.098689,28.6260303 204.111051,28.2271329 203.09,28.26 Z" id="Path"></path>
                <path d="M228.09,11.77 C231.097364,11.8447576 233.974036,13.014628 236.18,15.06 L239.93,10.3 C236.60571,7.52950212 232.417412,6.00841417 228.09,6 C218.9,6 212,12.45 212,21 C212,29.55 218.79,36 227.72,36 C232.010668,35.9284142 236.184878,34.5926672 239.72,32.16 L239.72,19.48 L228.75,19.48 L228.75,24.69 L233.9,24.69 L233.9,28.58 C232.122232,29.5423698 230.149506,30.0893994 228.13,30.18 C224.769017,30.2907933 221.614821,28.5609649 219.90153,25.6673315 C218.188239,22.7736981 218.188239,19.1763019 219.90153,16.2826685 C221.614821,13.3890351 224.769017,11.6592067 228.13,11.77 L228.09,11.77 Z" id="Path"></path>
                <path d="M262.9,6 C253.9,6 247.06,12.36 247.06,21 C247.06,29.64 253.89,36 262.9,36 C271.91,36 278.75,29.47 278.75,21 C278.75,12.53 271.92,6 262.9,6 Z M263,30.18 C257.943347,30.1414744 253.872281,26.016724 253.9,20.96 C253.8786,18.5354462 254.82886,16.2032618 256.538641,14.4840858 C258.248423,12.7649098 260.575365,11.8018858 263,11.81 C265.406332,11.8308522 267.704093,12.8145024 269.380136,14.5412773 C271.056179,16.2680522 271.970893,18.5941154 271.92,21 C271.968184,23.4041706 271.052267,25.727644 269.376518,27.4522376 C267.700769,29.1768313 265.404563,30.1591081 263,30.18 Z" id="Shape" fill-rule="nonzero"></path>
                <polygon id="Path" points="305.13 6.21 297.04 28.46 288.99 6.21 281.83 6.21 293.42 35.7 300.29 35.7 312 6.21"></polygon>
            </g>
        </g>
    </g>
</svg>

<svg width="312" height="42" viewBox="0 0 312 42" xmlns="http://www.w3.org/2000/svg"><g fill="#FFF" fill-rule="evenodd"><path d="M28.43 0H4.62A4.62 4.62 0 0 0 0 4.62v22.64c-.004.43.092.854.28 1.24 1 2 5 8.53 16.24 13.5 11.3-5 15.25-11.48 16.25-13.5a2.78 2.78 0 0 0 .28-1.24V4.62A4.62 4.62 0 0 0 28.43 0ZM21 27a26.18 26.18 0 0 1-8.89 0l1.54-8.82a4.63 4.63 0 0 1-1.82-3.67 4.69 4.69 0 1 1 7.62 3.63C20 21.06 20.48 24 21 27Z" fill-rule="nonzero"/><path d="M54.25 6.21h-6.66V35.7h19.3v-5.81H54.25z"/><path d="M87.47 6c-9 0-15.84 6.36-15.84 15s6.82 15 15.84 15 15.84-6.53 15.84-15c0-8.47-6.82-15-15.84-15Zm.08 24.18a9.17 9.17 0 0 1-9.1-9.18 9.07 9.07 0 0 1 9.1-9.15A9 9 0 0 1 96.49 21a9 9 0 0 1-8.94 9.18Z" fill-rule="nonzero"/><path d="M125.74 11.77a12.35 12.35 0 0 1 8.09 3.29l3.75-4.76A18.55 18.55 0 0 0 125.74 6c-9.19 0-16.1 6.45-16.1 15s6.79 15 15.72 15a21.81 21.81 0 0 0 12-3.84V19.48H126.4v5.21h5.15v3.89a13.38 13.38 0 0 1-5.77 1.6 9.21 9.21 0 1 1 0-18.41h-.04Zm21.19-5.56h6.66V35.7h-6.66zm37.29 18.96L169.89 6.21h-6.07V35.7h6.36V16.79l14.29 18.91h6.06V6.21h-6.31zm18.87 3.09a3.66 3.66 0 0 0-3.75 3.85 3.75 3.75 0 1 0 7.49 0 3.63 3.63 0 0 0-3.74-3.85Zm25-16.49a12.35 12.35 0 0 1 8.09 3.29l3.75-4.76A18.55 18.55 0 0 0 228.09 6C218.9 6 212 12.45 212 21s6.79 15 15.72 15a21.81 21.81 0 0 0 12-3.84V19.48h-10.97v5.21h5.15v3.89a13.38 13.38 0 0 1-5.77 1.6 9.21 9.21 0 1 1 0-18.41h-.04Z"/><path d="M262.9 6c-9 0-15.84 6.36-15.84 15s6.83 15 15.84 15 15.85-6.53 15.85-15c0-8.47-6.83-15-15.85-15Zm.1 24.18a9.17 9.17 0 0 1-9.1-9.22 9.07 9.07 0 0 1 9.1-9.15 9 9 0 0 1 8.92 9.19 9 9 0 0 1-8.92 9.18Z" fill-rule="nonzero"/><path d="m305.13 6.21-8.09 22.25-8.05-22.25h-7.16l11.59 29.49h6.87L312 6.21z"/></g></svg>
